images/50616204.svg

<?xml version="1.0" encoding="UTF-8"?>
<svg xmlns="http://www.w3.org/2000/svg" xmlns:xlink="http://www.w3.org/1999/xlink" width="300pt" height="300pt" viewBox="0 0 300 300" version="1.1">
<defs>
<g>
<symbol overflow="visible" id="glyph0-0">
<path style="stroke:none;" d="M 0.640625 2.296875 L 0.640625 -9.171875 L 7.140625 -9.171875 L 7.140625 2.296875 Z M 1.375 1.578125 L 6.421875 1.578125 L 6.421875 -8.4375 L 1.375 -8.4375 Z M 1.375 1.578125 "/>
</symbol>
<symbol overflow="visible" id="glyph0-1">
<path style="stroke:none;" d="M 5.125 -8.609375 C 4.1875 -8.609375 3.441406 -8.257812 2.890625 -7.5625 C 2.347656 -6.875 2.078125 -5.929688 2.078125 -4.734375 C 2.078125 -3.535156 2.347656 -2.585938 2.890625 -1.890625 C 3.441406 -1.203125 4.1875 -0.859375 5.125 -0.859375 C 6.050781 -0.859375 6.785156 -1.203125 7.328125 -1.890625 C 7.878906 -2.585938 8.15625 -3.535156 8.15625 -4.734375 C 8.15625 -5.929688 7.878906 -6.875 7.328125 -7.5625 C 6.785156 -8.257812 6.050781 -8.609375 5.125 -8.609375 Z M 5.125 -9.65625 C 6.445312 -9.65625 7.503906 -9.207031 8.296875 -8.3125 C 9.097656 -7.414062 9.5 -6.222656 9.5 -4.734375 C 9.5 -3.234375 9.097656 -2.035156 8.296875 -1.140625 C 7.503906 -0.253906 6.445312 0.1875 5.125 0.1875 C 3.789062 0.1875 2.722656 -0.253906 1.921875 -1.140625 C 1.128906 -2.035156 0.734375 -3.234375 0.734375 -4.734375 C 0.734375 -6.222656 1.128906 -7.414062 1.921875 -8.3125 C 2.722656 -9.207031 3.789062 -9.65625 5.125 -9.65625 Z M 5.125 -9.65625 "/>
</symbol>
<symbol overflow="visible" id="glyph0-2">
<path style="stroke:none;" d="M 1.28125 -9.484375 L 3 -9.484375 L 7.203125 -1.546875 L 7.203125 -9.484375 L 8.453125 -9.484375 L 8.453125 0 L 6.71875 0 L 2.515625 -7.921875 L 2.515625 0 L 1.28125 0 Z M 1.28125 -9.484375 "/>
</symbol>
<symbol overflow="visible" id="glyph0-3">
<path style="stroke:none;" d="M 1.28125 -9.484375 L 2.5625 -9.484375 L 2.5625 -5.59375 L 7.21875 -5.59375 L 7.21875 -9.484375 L 8.5 -9.484375 L 8.5 0 L 7.21875 0 L 7.21875 -4.515625 L 2.5625 -4.515625 L 2.5625 0 L 1.28125 0 Z M 1.28125 -9.484375 "/>
</symbol>
<symbol overflow="visible" id="glyph1-0">
<path style="stroke:none;" d="M 0.546875 1.9375 L 0.546875 -7.75 L 6.046875 -7.75 L 6.046875 1.9375 Z M 1.171875 1.328125 L 5.4375 1.328125 L 5.4375 -7.140625 L 1.171875 -7.140625 Z M 1.171875 1.328125 "/>
</symbol>
<symbol overflow="visible" id="glyph1-1">
<path style="stroke:none;" d="M 0.53125 -3.453125 L 3.4375 -3.453125 L 3.4375 -2.578125 L 0.53125 -2.578125 Z M 0.53125 -3.453125 "/>
</symbol>
</g>
</defs>
<g id="surface14073">
<rect x="0" y="0" width="300" height="300" style="fill:rgb(100%,100%,100%);fill-opacity:1;stroke:none;"/>
<path style="fill:none;stroke-width:1.2;stroke-linecap:butt;stroke-linejoin:miter;stroke:rgb(100%,0%,0%);stroke-opacity:1;stroke-miterlimit:10;" d="M 38.601562 178.621094 L 47.207031 164.382812 "/>
<path style="fill:none;stroke-width:1.2;stroke-linecap:butt;stroke-linejoin:miter;stroke:rgb(0%,0%,0%);stroke-opacity:1;stroke-miterlimit:10;" d="M 47.207031 164.382812 L 55.808594 150.140625 "/>
<path style="fill:none;stroke-width:1.2;stroke-linecap:butt;stroke-linejoin:miter;stroke:rgb(100%,0%,0%);stroke-opacity:1;stroke-miterlimit:10;" d="M 31.898438 174.574219 L 40.503906 160.332031 "/>
<path style="fill:none;stroke-width:1.2;stroke-linecap:butt;stroke-linejoin:miter;stroke:rgb(0%,0%,0%);stroke-opacity:1;stroke-miterlimit:10;" d="M 40.503906 160.332031 L 49.109375 146.09375 "/>
<path style=" stroke:none;fill-rule:nonzero;fill:rgb(100%,100%,100%);fill-opacity:1;" d="M 24.25 168.597656 L 35.25 168.597656 L 35.25 184.597656 L 24.25 184.597656 Z M 24.25 168.597656 "/>
<g style="fill:rgb(100%,0%,0%);fill-opacity:1;">
  <use xlink:href="#glyph0-1" x="24.25" y="180.973633"/>
</g>
<path style="fill:none;stroke-width:1.2;stroke-linecap:butt;stroke-linejoin:miter;stroke:rgb(0%,0%,0%);stroke-opacity:1;stroke-miterlimit:10;" d="M 52.460938 148.117188 L 69.039062 146.707031 "/>
<path style="fill:none;stroke-width:1.2;stroke-linecap:butt;stroke-linejoin:miter;stroke:rgb(0%,0%,100%);stroke-opacity:1;stroke-miterlimit:10;" d="M 69.039062 146.707031 L 85.617188 145.300781 "/>
<path style="fill:none;stroke-width:1.2;stroke-linecap:butt;stroke-linejoin:miter;stroke:rgb(0%,0%,100%);stroke-opacity:1;stroke-miterlimit:10;" d="M 39.535156 117.453125 L 45.996094 132.785156 "/>
<path style="fill:none;stroke-width:1.2;stroke-linecap:butt;stroke-linejoin:miter;stroke:rgb(0%,0%,0%);stroke-opacity:1;stroke-miterlimit:10;" d="M 45.996094 132.785156 L 52.460938 148.117188 "/>
<path style="fill:none;stroke-width:1.2;stroke-linecap:butt;stroke-linejoin:miter;stroke:rgb(0%,0%,100%);stroke-opacity:1;stroke-miterlimit:10;" d="M 85.617188 145.300781 L 89.398438 129.097656 "/>
<path style="fill:none;stroke-width:1.2;stroke-linecap:butt;stroke-linejoin:miter;stroke:rgb(0%,0%,0%);stroke-opacity:1;stroke-miterlimit:10;" d="M 89.398438 129.097656 L 93.183594 112.894531 "/>
<path style="fill:none;stroke-width:1.2;stroke-linecap:butt;stroke-linejoin:miter;stroke:rgb(0%,0%,100%);stroke-opacity:1;stroke-miterlimit:10;" d="M 85.617188 145.300781 L 96.5 157.882812 "/>
<path style="fill:none;stroke-width:1.2;stroke-linecap:butt;stroke-linejoin:miter;stroke:rgb(0%,0%,0%);stroke-opacity:1;stroke-miterlimit:10;" d="M 96.5 157.882812 L 107.386719 170.46875 "/>
<path style=" stroke:none;fill-rule:nonzero;fill:rgb(100%,100%,100%);fill-opacity:1;" d="M 80.617188 137.300781 L 90.617188 137.300781 L 90.617188 153.300781 L 80.617188 153.300781 Z M 80.617188 137.300781 "/>
<g style="fill:rgb(0%,0%,100%);fill-opacity:1;">
  <use xlink:href="#glyph0-2" x="80.617188" y="149.676758"/>
</g>
<path style="fill:none;stroke-width:1.2;stroke-linecap:butt;stroke-linejoin:miter;stroke:rgb(0%,0%,0%);stroke-opacity:1;stroke-miterlimit:10;" d="M 93.183594 112.894531 L 78.941406 104.289062 "/>
<path style="fill:none;stroke-width:1.2;stroke-linecap:butt;stroke-linejoin:miter;stroke:rgb(0%,0%,100%);stroke-opacity:1;stroke-miterlimit:10;" d="M 78.941406 104.289062 L 64.703125 95.6875 "/>
<path style="fill:none;stroke-width:1.2;stroke-linecap:butt;stroke-linejoin:miter;stroke:rgb(0%,0%,0%);stroke-opacity:1;stroke-miterlimit:10;" d="M 86.285156 117.875 L 74.894531 110.992188 "/>
<path style="fill:none;stroke-width:1.2;stroke-linecap:butt;stroke-linejoin:miter;stroke:rgb(0%,0%,100%);stroke-opacity:1;stroke-miterlimit:10;" d="M 74.894531 110.992188 L 63.5 104.109375 "/>
<path style="fill:none;stroke-width:1.2;stroke-linecap:butt;stroke-linejoin:miter;stroke:rgb(0%,0%,0%);stroke-opacity:1;stroke-miterlimit:10;" d="M 93.183594 112.894531 L 123.847656 99.96875 "/>
<path style="fill:none;stroke-width:1.2;stroke-linecap:butt;stroke-linejoin:miter;stroke:rgb(0%,0%,100%);stroke-opacity:1;stroke-miterlimit:10;" d="M 64.703125 95.6875 L 39.535156 117.453125 "/>
<path style=" stroke:none;fill-rule:nonzero;fill:rgb(100%,100%,100%);fill-opacity:1;" d="M 59.703125 87.6875 L 69.703125 87.6875 L 69.703125 103.6875 L 59.703125 103.6875 Z M 59.703125 87.6875 "/>
<g style="fill:rgb(0%,0%,100%);fill-opacity:1;">
  <use xlink:href="#glyph0-2" x="59.703125" y="100.063477"/>
</g>
<path style=" stroke:none;fill-rule:nonzero;fill:rgb(100%,100%,100%);fill-opacity:1;" d="M 32.535156 107.953125 L 46.535156 107.953125 L 46.535156 126.953125 L 32.535156 126.953125 Z M 32.535156 107.953125 "/>
<g style="fill:rgb(0%,0%,100%);fill-opacity:1;">
  <use xlink:href="#glyph0-2" x="32.535156" y="123.148438"/>
</g>
<g style="fill:rgb(0%,0%,100%);fill-opacity:1;">
  <use xlink:href="#glyph1-1" x="42.504883" y="118.265625"/>
</g>
<path style="fill:none;stroke-width:1.2;stroke-linecap:butt;stroke-linejoin:miter;stroke:rgb(0%,0%,0%);stroke-opacity:1;stroke-miterlimit:10;" d="M 123.847656 99.96875 L 150.371094 120.0625 "/>
<path style="fill:none;stroke-width:1.2;stroke-linecap:butt;stroke-linejoin:miter;stroke:rgb(0%,0%,0%);stroke-opacity:1;stroke-miterlimit:10;" d="M 131.226562 95.738281 L 152.445312 111.8125 "/>
<path style="fill:none;stroke-width:1.2;stroke-linecap:butt;stroke-linejoin:miter;stroke:rgb(0%,0%,0%);stroke-opacity:1;stroke-miterlimit:10;" d="M 127.984375 66.953125 L 123.847656 99.96875 "/>
<path style="fill:none;stroke-width:1.2;stroke-linecap:butt;stroke-linejoin:miter;stroke:rgb(0%,0%,0%);stroke-opacity:1;stroke-miterlimit:10;" d="M 150.371094 120.0625 L 181.035156 107.136719 "/>
<path style="fill:none;stroke-width:1.2;stroke-linecap:butt;stroke-linejoin:miter;stroke:rgb(0%,0%,0%);stroke-opacity:1;stroke-miterlimit:10;" d="M 181.035156 107.136719 L 183.105469 90.628906 "/>
<path style="fill:none;stroke-width:1.2;stroke-linecap:butt;stroke-linejoin:miter;stroke:rgb(0%,0%,100%);stroke-opacity:1;stroke-miterlimit:10;" d="M 183.105469 90.628906 L 185.171875 74.117188 "/>
<path style="fill:none;stroke-width:1.2;stroke-linecap:butt;stroke-linejoin:miter;stroke:rgb(0%,0%,0%);stroke-opacity:1;stroke-miterlimit:10;" d="M 173.679688 102.863281 L 175.335938 89.652344 "/>
<path style="fill:none;stroke-width:1.2;stroke-linecap:butt;stroke-linejoin:miter;stroke:rgb(0%,0%,100%);stroke-opacity:1;stroke-miterlimit:10;" d="M 175.335938 89.652344 L 176.992188 76.445312 "/>
<path style="fill:none;stroke-width:1.2;stroke-linecap:butt;stroke-linejoin:miter;stroke:rgb(0%,0%,0%);stroke-opacity:1;stroke-miterlimit:10;" d="M 181.035156 107.136719 L 194.296875 117.183594 "/>
<path style="fill:none;stroke-width:1.2;stroke-linecap:butt;stroke-linejoin:miter;stroke:rgb(0%,0%,100%);stroke-opacity:1;stroke-miterlimit:10;" d="M 194.296875 117.183594 L 207.5625 127.230469 "/>
<path style="fill:none;stroke-width:1.2;stroke-linecap:butt;stroke-linejoin:miter;stroke:rgb(0%,0%,100%);stroke-opacity:1;stroke-miterlimit:10;" d="M 185.171875 74.117188 L 171.910156 64.074219 "/>
<path style="fill:none;stroke-width:1.2;stroke-linecap:butt;stroke-linejoin:miter;stroke:rgb(0%,0%,0%);stroke-opacity:1;stroke-miterlimit:10;" d="M 171.910156 64.074219 L 158.648438 54.027344 "/>
<path style=" stroke:none;fill-rule:nonzero;fill:rgb(100%,100%,100%);fill-opacity:1;" d="M 180.171875 66.117188 L 190.171875 66.117188 L 190.171875 82.117188 L 180.171875 82.117188 Z M 180.171875 66.117188 "/>
<g style="fill:rgb(0%,0%,100%);fill-opacity:1;">
  <use xlink:href="#glyph0-2" x="180.171875" y="78.493164"/>
</g>
<path style="fill:none;stroke-width:1.2;stroke-linecap:butt;stroke-linejoin:miter;stroke:rgb(0%,0%,0%);stroke-opacity:1;stroke-miterlimit:10;" d="M 158.648438 54.027344 L 127.984375 66.953125 "/>
<path style="fill:none;stroke-width:1.2;stroke-linecap:butt;stroke-linejoin:miter;stroke:rgb(0%,0%,0%);stroke-opacity:1;stroke-miterlimit:10;" d="M 158.621094 62.535156 L 134.09375 72.875 "/>
<path style="fill:none;stroke-width:1.2;stroke-linecap:butt;stroke-linejoin:miter;stroke:rgb(0%,0%,100%);stroke-opacity:1;stroke-miterlimit:10;" d="M 207.5625 127.230469 L 222.894531 120.765625 "/>
<path style="fill:none;stroke-width:1.2;stroke-linecap:butt;stroke-linejoin:miter;stroke:rgb(0%,0%,0%);stroke-opacity:1;stroke-miterlimit:10;" d="M 222.894531 120.765625 L 238.222656 114.304688 "/>
<path style=" stroke:none;fill-rule:nonzero;fill:rgb(100%,100%,100%);fill-opacity:1;" d="M 197.5625 119.230469 L 217.5625 119.230469 L 217.5625 135.230469 L 197.5625 135.230469 Z M 197.5625 119.230469 "/>
<g style="fill:rgb(0%,0%,100%);fill-opacity:1;">
  <use xlink:href="#glyph0-2" x="197.5625" y="131.606445"/>
  <use xlink:href="#glyph0-3" x="207.532227" y="131.606445"/>
</g>
<path style="fill:none;stroke-width:1.2;stroke-linecap:butt;stroke-linejoin:miter;stroke:rgb(0%,0%,0%);stroke-opacity:1;stroke-miterlimit:10;" d="M 242.109375 114.789062 L 244.179688 98.28125 "/>
<path style="fill:none;stroke-width:1.2;stroke-linecap:butt;stroke-linejoin:miter;stroke:rgb(100%,0%,0%);stroke-opacity:1;stroke-miterlimit:10;" d="M 244.179688 98.28125 L 246.246094 81.773438 "/>
<path style="fill:none;stroke-width:1.2;stroke-linecap:butt;stroke-linejoin:miter;stroke:rgb(0%,0%,0%);stroke-opacity:1;stroke-miterlimit:10;" d="M 234.339844 113.816406 L 236.410156 97.308594 "/>
<path style="fill:none;stroke-width:1.2;stroke-linecap:butt;stroke-linejoin:miter;stroke:rgb(100%,0%,0%);stroke-opacity:1;stroke-miterlimit:10;" d="M 236.410156 97.308594 L 238.476562 80.800781 "/>
<path style="fill:none;stroke-width:1.2;stroke-linecap:butt;stroke-linejoin:miter;stroke:rgb(0%,0%,0%);stroke-opacity:1;stroke-miterlimit:10;" d="M 238.222656 114.304688 L 264.75 134.394531 "/>
<path style=" stroke:none;fill-rule:nonzero;fill:rgb(100%,100%,100%);fill-opacity:1;" d="M 237.363281 73.285156 L 248.363281 73.285156 L 248.363281 89.285156 L 237.363281 89.285156 Z M 237.363281 73.285156 "/>
<g style="fill:rgb(100%,0%,0%);fill-opacity:1;">
  <use xlink:href="#glyph0-1" x="237.363281" y="85.661133"/>
</g>
<path style="fill:none;stroke-width:1.2;stroke-linecap:butt;stroke-linejoin:miter;stroke:rgb(0%,0%,0%);stroke-opacity:1;stroke-miterlimit:10;" d="M 107.386719 170.46875 L 140.066406 164.199219 "/>
<path style="fill:none;stroke-width:1.2;stroke-linecap:butt;stroke-linejoin:miter;stroke:rgb(0%,0%,0%);stroke-opacity:1;stroke-miterlimit:10;" d="M 112.128906 177.53125 L 138.273438 172.515625 "/>
<path style="fill:none;stroke-width:1.2;stroke-linecap:butt;stroke-linejoin:miter;stroke:rgb(0%,0%,0%);stroke-opacity:1;stroke-miterlimit:10;" d="M 96.472656 201.90625 L 107.386719 170.46875 "/>
<path style="fill:none;stroke-width:1.2;stroke-linecap:butt;stroke-linejoin:miter;stroke:rgb(0%,0%,0%);stroke-opacity:1;stroke-miterlimit:10;" d="M 140.066406 164.199219 L 161.835938 189.367188 "/>
<path style="fill:none;stroke-width:1.2;stroke-linecap:butt;stroke-linejoin:miter;stroke:rgb(0%,0%,0%);stroke-opacity:1;stroke-miterlimit:10;" d="M 161.835938 189.367188 L 150.921875 220.804688 "/>
<path style="fill:none;stroke-width:1.2;stroke-linecap:butt;stroke-linejoin:miter;stroke:rgb(0%,0%,0%);stroke-opacity:1;stroke-miterlimit:10;" d="M 168.140625 195.082031 L 159.410156 220.230469 "/>
<path style="fill:none;stroke-width:1.2;stroke-linecap:butt;stroke-linejoin:miter;stroke:rgb(0%,0%,0%);stroke-opacity:1;stroke-miterlimit:10;" d="M 194.515625 183.101562 L 161.835938 189.367188 "/>
<path style="fill:none;stroke-width:1.2;stroke-linecap:butt;stroke-linejoin:miter;stroke:rgb(0%,0%,0%);stroke-opacity:1;stroke-miterlimit:10;" d="M 150.921875 220.804688 L 118.242188 227.074219 "/>
<path style="fill:none;stroke-width:1.2;stroke-linecap:butt;stroke-linejoin:miter;stroke:rgb(0%,0%,0%);stroke-opacity:1;stroke-miterlimit:10;" d="M 150.921875 220.804688 L 172.691406 245.972656 "/>
<path style="fill:none;stroke-width:1.2;stroke-linecap:butt;stroke-linejoin:miter;stroke:rgb(0%,0%,0%);stroke-opacity:1;stroke-miterlimit:10;" d="M 118.242188 227.074219 L 96.472656 201.90625 "/>
<path style="fill:none;stroke-width:1.2;stroke-linecap:butt;stroke-linejoin:miter;stroke:rgb(0%,0%,0%);stroke-opacity:1;stroke-miterlimit:10;" d="M 121.988281 219.433594 L 104.570312 199.300781 "/>
<path style="fill:none;stroke-width:1.2;stroke-linecap:butt;stroke-linejoin:miter;stroke:rgb(0%,0%,0%);stroke-opacity:1;stroke-miterlimit:10;" d="M 172.691406 245.972656 L 205.371094 239.707031 "/>
<path style="fill:none;stroke-width:1.2;stroke-linecap:butt;stroke-linejoin:miter;stroke:rgb(0%,0%,0%);stroke-opacity:1;stroke-miterlimit:10;" d="M 174.484375 237.65625 L 200.628906 232.644531 "/>
<path style="fill:none;stroke-width:1.2;stroke-linecap:butt;stroke-linejoin:miter;stroke:rgb(0%,0%,0%);stroke-opacity:1;stroke-miterlimit:10;" d="M 205.371094 239.707031 L 216.285156 208.269531 "/>
<path style="fill:none;stroke-width:1.2;stroke-linecap:butt;stroke-linejoin:miter;stroke:rgb(0%,0%,0%);stroke-opacity:1;stroke-miterlimit:10;" d="M 216.285156 208.269531 L 194.515625 183.101562 "/>
<path style="fill:none;stroke-width:1.2;stroke-linecap:butt;stroke-linejoin:miter;stroke:rgb(0%,0%,0%);stroke-opacity:1;stroke-miterlimit:10;" d="M 208.183594 210.875 L 190.769531 190.738281 "/>
</g>
</svg>

<svg xmlns="http://www.w3.org/2000/svg" xmlns:xlink="http://www.w3.org/1999/xlink" width="300pt" height="300pt" viewBox="0 0 300 300"><defs><symbol overflow="visible"><path d="M.64 2.297v-11.47h6.5v11.47zm.735-.72h5.047V-8.436H1.375zm0 0"/></symbol><symbol overflow="visible" id="a"><path d="M5.125-8.61c-.938 0-1.684.352-2.234 1.047-.542.688-.812 1.633-.812 2.83 0 1.198.27 2.147.813 2.842.55.687 1.297 1.03 2.235 1.03.926 0 1.66-.343 2.203-1.03.55-.696.828-1.645.828-2.844 0-1.196-.277-2.14-.828-2.829-.543-.695-1.277-1.046-2.203-1.046zm0-1.046c1.32 0 2.38.45 3.172 1.344.8.898 1.203 2.09 1.203 3.578 0 1.5-.402 2.7-1.203 3.593C7.504-.255 6.445.186 5.125.186c-1.336 0-2.402-.44-3.203-1.328C1.13-2.036.734-3.235.734-4.735c0-1.49.395-2.68 1.188-3.579.8-.894 1.867-1.343 3.203-1.343zm0 0"/></symbol><symbol overflow="visible" id="b"><path d="M1.28-9.484H3l4.203 7.937v-7.937h1.25V0H6.72L2.515-7.922V0H1.28zm0 0"/></symbol><symbol overflow="visible" id="d"><path d="M1.28-9.484h1.282v3.89H7.22v-3.89H8.5V0H7.22v-4.516H2.562V0H1.28zm0 0"/></symbol><symbol overflow="visible"><path d="M.547 1.938V-7.75h5.5v9.688zm.625-.61h4.266v-8.47H1.171zm0 0"/></symbol><symbol overflow="visible" id="c"><path d="M.53-3.453h2.907v.875H.53zm0 0"/></symbol></defs><g><path fill="#fff" d="M0 0h300v300H0z"/><path d="M38.602 178.62l8.605-14.237" stroke-width="1.2" stroke="#f00" stroke-miterlimit="10" fill="none"/><path d="M47.207 164.383l8.602-14.242" stroke-width="1.2" stroke="#000" stroke-miterlimit="10" fill="none"/><path d="M31.898 174.574l8.606-14.242" stroke-width="1.2" stroke="#f00" stroke-miterlimit="10" fill="none"/><path d="M40.504 160.332l8.605-14.238" stroke-width="1.2" stroke="#000" stroke-miterlimit="10" fill="none"/><path d="M24.25 168.598h11v16h-11zm0 0" fill="#fff"/><use xlink:href="#a" x="24.25" y="180.974" fill="#f00"/><path d="M52.46 148.117l16.58-1.41" stroke-width="1.2" stroke="#000" stroke-miterlimit="10" fill="none"/><path d="M69.04 146.707l16.577-1.406M39.535 117.453l6.46 15.332" stroke-width="1.2" stroke="#00f" stroke-miterlimit="10" fill="none"/><path d="M45.996 132.785l6.465 15.332" stroke-width="1.2" stroke="#000" stroke-miterlimit="10" fill="none"/><path d="M85.617 145.3l3.78-16.202" stroke-width="1.2" stroke="#00f" stroke-miterlimit="10" fill="none"/><path d="M89.398 129.098l3.786-16.203" stroke-width="1.2" stroke="#000" stroke-miterlimit="10" fill="none"/><path d="M85.617 145.3L96.5 157.884" stroke-width="1.2" stroke="#00f" stroke-miterlimit="10" fill="none"/><path d="M96.5 157.883l10.887 12.586" stroke-width="1.2" stroke="#000" stroke-miterlimit="10" fill="none"/><path d="M80.617 137.3h10v16h-10zm0 0" fill="#fff"/><use xlink:href="#b" x="80.617" y="149.677" fill="#00f"/><path d="M93.184 112.895L78.94 104.29" stroke-width="1.2" stroke="#000" stroke-miterlimit="10" fill="none"/><path d="M78.94 104.29l-14.237-8.603" stroke-width="1.2" stroke="#00f" stroke-miterlimit="10" fill="none"/><path d="M86.285 117.875l-11.39-6.883" stroke-width="1.2" stroke="#000" stroke-miterlimit="10" fill="none"/><path d="M74.895 110.992L63.5 104.11" stroke-width="1.2" stroke="#00f" stroke-miterlimit="10" fill="none"/><path d="M93.184 112.895l30.664-12.926" stroke-width="1.2" stroke="#000" stroke-miterlimit="10" fill="none"/><path d="M64.703 95.688l-25.168 21.765" stroke-width="1.2" stroke="#00f" stroke-miterlimit="10" fill="none"/><path d="M59.703 87.688h10v16h-10zm0 0" fill="#fff"/><use xlink:href="#b" x="59.703" y="100.063" fill="#00f"/><path d="M32.535 107.953h14v19h-14zm0 0" fill="#fff"/><use xlink:href="#b" x="32.535" y="123.148" fill="#00f"/><use xlink:href="#c" x="42.505" y="118.266" fill="#00f"/><path d="M123.848 99.97l26.523 20.093M131.227 95.738l21.218 16.075M127.984 66.953l-4.136 33.016M150.37 120.063l30.665-12.926M181.035 107.137l2.07-16.508" stroke-width="1.2" stroke="#000" stroke-miterlimit="10" fill="none"/><path d="M183.105 90.63l2.067-16.513" stroke-width="1.2" stroke="#00f" stroke-miterlimit="10" fill="none"/><path d="M173.68 102.863l1.656-13.21" stroke-width="1.2" stroke="#000" stroke-miterlimit="10" fill="none"/><path d="M175.336 89.652l1.656-13.207" stroke-width="1.2" stroke="#00f" stroke-miterlimit="10" fill="none"/><path d="M181.035 107.137l13.262 10.047" stroke-width="1.2" stroke="#000" stroke-miterlimit="10" fill="none"/><path d="M194.297 117.184l13.266 10.046M185.172 74.117L171.91 64.074" stroke-width="1.2" stroke="#00f" stroke-miterlimit="10" fill="none"/><path d="M171.91 64.074l-13.262-10.047" stroke-width="1.2" stroke="#000" stroke-miterlimit="10" fill="none"/><path d="M180.172 66.117h10v16h-10zm0 0" fill="#fff"/><use xlink:href="#b" x="180.172" y="78.493" fill="#00f"/><path d="M158.648 54.027l-30.664 12.926M158.62 62.535l-24.526 10.34" stroke-width="1.2" stroke="#000" stroke-miterlimit="10" fill="none"/><path d="M207.563 127.23l15.332-6.464" stroke-width="1.2" stroke="#00f" stroke-miterlimit="10" fill="none"/><path d="M222.895 120.766l15.328-6.46" stroke-width="1.2" stroke="#000" stroke-miterlimit="10" fill="none"/><path d="M197.563 119.23h20v16h-20zm0 0" fill="#fff"/><g fill="#00f"><use xlink:href="#b" x="197.563" y="131.606"/><use xlink:href="#d" x="207.532" y="131.606"/></g><path d="M242.11 114.79l2.07-16.51" stroke-width="1.2" stroke="#000" stroke-miterlimit="10" fill="none"/><path d="M244.18 98.28l2.066-16.507" stroke-width="1.2" stroke="#f00" stroke-miterlimit="10" fill="none"/><path d="M234.34 113.816l2.07-16.507" stroke-width="1.2" stroke="#000" stroke-miterlimit="10" fill="none"/><path d="M236.41 97.31l2.067-16.51" stroke-width="1.2" stroke="#f00" stroke-miterlimit="10" fill="none"/><path d="M238.223 114.305l26.527 20.09" stroke-width="1.2" stroke="#000" stroke-miterlimit="10" fill="none"/><path d="M237.363 73.285h11v16h-11zm0 0" fill="#fff"/><use xlink:href="#a" x="237.363" y="85.661" fill="#f00"/><path d="M107.387 170.47l32.68-6.27M112.13 177.53l26.143-5.014M96.473 201.906l10.914-31.437M140.066 164.2l21.77 25.167M161.836 189.367l-10.914 31.438M168.14 195.082l-8.73 25.148M194.516 183.102l-32.68 6.265M150.922 220.805l-32.68 6.27M150.922 220.805l21.77 25.168M118.242 227.074l-21.77-25.168M121.988 219.434L104.57 199.3M172.69 245.973l32.68-6.266M174.484 237.656l26.145-5.01M205.37 239.707l10.915-31.437M216.285 208.27l-21.77-25.168M208.184 210.875l-17.414-20.137" stroke-width="1.2" stroke="#000" stroke-miterlimit="10" fill="none"/></g></svg>
